; generated by PrusaSlicer 2.7.2+win64 on 2025-05-20 at 06:46:23 UTC

; 

; external perimeters extrusion width = 0.45mm
; perimeters extrusion width = 0.45mm
; infill extrusion width = 0.45mm
; solid infill extrusion width = 0.45mm
; top infill extrusion width = 0.40mm
; support material extrusion width = 0.38mm
; first layer extrusion width = 0.42mm

M201 X500 Y500 Z100 E5000 ; sets maximum accelerations, mm/sec^2
M203 X500 Y500 Z10 E60 ; sets maximum feedrates, mm / sec
M204 S500 T1000 ; sets acceleration (S) and retract acceleration (R), mm/sec^2
M205 X8.00 Y8.00 Z0.40 E5.00 ; sets the jerk limits, mm/sec
M205 S0 T0 ; sets the minimum extruding and travel feed rate, mm/sec
;TYPE:Custom
G90 ; use absolute coordinates
M83 ; extruder relative mode

G28 ; home all
G1 Z30 X0 Y0 F1000 ; move nozzle to safe heating position for easy drip clean up

M104 S200 ; set extruder temp
M140 S60 ; set bed temp
M190 S60 ; wait for bed temp
M109 S200 ; wait for extruder temp

G28 ; home all
G1 Z2 F240
G1 X2 Y10 F3000
G1 Z0.28 F240
G92 E0.0
G1 Y190 E15.0 F1500.0 ; intro line
G1 X2.3 F5000
G1 Y10 E30 F1200.0 ; intro line
G92 E0.0

G1 Y190 E15.0 F1500.0 ; intro line
G1 X3.3 F5000
G1 Y10 E30 F1200.0 ; intro line
G92 E0.0
G21 ; set units to millimeters
G90 ; use absolute coordinates
M83 ; use relative distances for extrusion
; Filament gcode
M107
;LAYER_CHANGE
;Z:0.1
;HEIGHT:0.1
G1 E-6 F3600
G1 Z.1 F9000
G1 X107.402 Y106.926
G1 Z.1
G1 E6 F2400
;TYPE:Skirt/Brim
;WIDTH:0.42
G1 F1200
G1 X111.805 Y103.417 E.09329
G1 X116.856 Y100.846 E.09391
G1 X122.341 Y99.335 E.09427
G1 X126.654 Y98.951 E.07175
G1 X173.403 Y98.952 E.7746
G1 X178.564 Y99.507 E.08601
G1 X183.522 Y100.995 E.08577
G1 X188.118 Y103.368 E.0857
G1 X192.204 Y106.538 E.08569
G1 X196.807 Y112.146 E.12021
G1 X199.019 Y116.512 E.0811
G1 X200.442 Y121.183 E.08091
G1 X201.049 Y126.624 E.09071
G1 X201.022 Y173.888 E.78313
G1 X200.508 Y178.492 E.07676
G1 X199.232 Y182.961 E.07701
G1 X196.223 Y188.738 E.10793
G1 X192.433 Y193.234 E.09743
G1 X187.758 Y196.859 E.09802
G1 X182.935 Y199.237 E.0891
G1 X178.635 Y200.479 E.07416
G1 X174.212 Y201.004 E.0738
G1 X125.917 Y201.011 E.80022
G1 X121.398 Y200.486 E.07538
G1 X117.021 Y199.225 E.07547
G1 X111.261 Y196.222 E.10763
G1 X106.766 Y192.433 E.09741
G1 X103.141 Y187.758 E.09802
G1 X100.763 Y182.935 E.0891
G1 X99.521 Y178.635 E.07416
G1 X98.996 Y174.212 E.0738
G1 X98.989 Y125.917 E.80022
G1 X99.514 Y121.398 E.07538
G1 X100.775 Y117.021 E.07547
G1 X103.775 Y111.266 E.10754
G1 X107.364 Y106.972 E.09273
G1 X107.364 Y106.972 F9000
G1 X107.669 Y107.227
G1 F1200
G1 X107.695 Y107.197 E.00066
G1 X112.037 Y103.742 E.09194
G1 X117.019 Y101.21 E.0926
G1 X122.395 Y99.731 E.09239
G1 X126.663 Y99.35 E.071
G1 X173.393 Y99.351 E.77429
G1 X178.468 Y99.894 E.08457
G1 X183.356 Y101.358 E.08455
G1 X187.889 Y103.694 E.0845
G1 X191.942 Y106.84 E.08501
G1 X196.462 Y112.346 E.11803
G1 X198.642 Y116.645 E.07987
G1 X200.055 Y121.281 E.0803
G1 X200.65 Y126.635 E.08926
G1 X200.624 Y173.854 E.78239
G1 X200.113 Y178.431 E.07631
G1 X198.854 Y182.832 E.07585
G1 X195.88 Y188.534 E.10656
G1 X192.142 Y192.961 E.096
G1 X187.564 Y196.511 E.09599
G1 X182.807 Y198.86 E.08791
G1 X178.571 Y200.085 E.07306
G1 X174.177 Y200.607 E.07332
G1 X125.952 Y200.614 E.79906
G1 X121.461 Y200.092 E.07491
G1 X117.15 Y198.848 E.07435
G1 X111.465 Y195.879 E.10627
G1 X107.039 Y192.142 E.09598
G1 X103.489 Y187.564 E.09599
G1 X101.14 Y182.807 E.08791
G1 X99.915 Y178.571 E.07306
G1 X99.393 Y174.177 E.07332
G1 X99.386 Y125.952 E.79906
G1 X99.908 Y121.461 E.07491
G1 X101.152 Y117.15 E.07435
G1 X104.118 Y111.469 E.10619
G1 X107.631 Y107.273 E.09067
G1 X107.631 Y107.273 F9000
G1 X107.936 Y107.529
G1 F1200
G1 X107.987 Y107.468 E.00132
G1 X112.269 Y104.067 E.09061
G1 X117.144 Y101.589 E.09061
G1 X122.448 Y100.126 E.09117
G1 X126.672 Y99.748 E.07027
G1 X173.382 Y99.749 E.77395
G1 X178.407 Y100.289 E.08374
G1 X183.223 Y101.734 E.08331
G1 X187.689 Y104.04 E.08328
G1 X191.68 Y107.141 E.08374
G1 X196.116 Y112.545 E.11584
G1 X198.279 Y116.81 E.07924
G1 X199.668 Y121.38 E.07914
G1 X200.252 Y126.646 E.08779
G1 X200.227 Y173.821 E.78166
G1 X199.726 Y178.338 E.0753
G1 X198.477 Y182.703 E.07523
G1 X195.537 Y188.33 E.10519
G1 X191.881 Y192.659 E.09389
G1 X187.369 Y196.163 E.09466
G1 X182.68 Y198.482 E.08668
G1 X178.476 Y199.698 E.07251
G1 X174.142 Y200.21 E.07231
G1 X125.986 Y200.217 E.79791
G1 X121.555 Y199.704 E.07391
G1 X117.28 Y198.471 E.07372
G1 X111.669 Y195.536 E.10492
G1 X107.341 Y191.881 E.09386
G1 X103.837 Y187.369 E.09466
G1 X101.518 Y182.68 E.08668
G1 X100.302 Y178.476 E.07251
G1 X99.79 Y174.142 E.07231
G1 X99.783 Y125.986 E.79791
G1 X100.296 Y121.555 E.07391
G1 X101.529 Y117.28 E.07372
G1 X104.461 Y111.673 E.10484
G1 X107.897 Y107.575 E.08861
G1 X107.897 Y107.575 F9000
G1 X108.202 Y107.832
G1 F1200
G1 X108.279 Y107.74 E.00199
G1 X112.501 Y104.391 E.08929
G1 X117.306 Y101.954 E.08927
G1 X122.502 Y100.521 E.08931
G1 X126.681 Y100.147 E.06952
G1 X173.371 Y100.148 E.77362
G1 X178.31 Y100.676 E.0823
G1 X183.091 Y102.111 E.08271
G1 X187.49 Y104.385 E.08205
G1 X191.417 Y107.441 E.08245
G1 X195.771 Y112.745 E.1137
G1 X197.903 Y116.943 E.07801
G1 X199.282 Y121.478 E.07854
G1 X199.853 Y126.657 E.08633
G1 X199.83 Y173.789 E.78095
G1 X199.338 Y178.245 E.07428
G1 X198.099 Y182.574 E.07461
G1 X195.194 Y188.125 E.10381
G1 X191.59 Y192.386 E.09247
G1 X187.174 Y195.814 E.09263
G1 X182.551 Y198.104 E.08548
G1 X178.413 Y199.304 E.07139
G1 X174.106 Y199.813 E.07186
G1 X126.02 Y199.82 E.79675
G1 X121.65 Y199.317 E.07289
G1 X117.41 Y198.093 E.07312
G1 X111.874 Y195.194 E.10354
G1 X107.614 Y191.59 E.09246
G1 X104.186 Y187.174 E.09263
G1 X101.896 Y182.551 E.08548
G1 X100.696 Y178.413 E.07139
G1 X100.187 Y174.106 E.07186
G1 X100.18 Y126.02 E.79675
G1 X100.683 Y121.65 E.07289
G1 X101.907 Y117.41 E.07312
G1 X104.804 Y111.877 E.10348
G1 X108.164 Y107.878 E.08654
G1 X108.164 Y107.878 F9000
G1 X108.466 Y108.131
G1 F1200
G1 X108.543 Y108.04 E.00198
G1 X112.7 Y104.737 E.08797
G1 X117.432 Y102.332 E.08795
G1 X122.555 Y100.917 E.08806
G1 X126.69 Y100.546 E.06879
G1 X173.361 Y100.547 E.77331
G1 X178.214 Y101.063 E.08086
G1 X182.924 Y102.473 E.08146
G1 X187.29 Y104.731 E.08144
G1 X191.155 Y107.742 E.08118
G1 X195.425 Y112.945 E.11153
G1 X197.54 Y117.107 E.07736
G1 X198.895 Y121.576 E.07738
G1 X199.454 Y126.667 E.08486
G1 X199.432 Y173.756 E.78023
G1 X198.944 Y178.184 E.07381
G1 X197.722 Y182.444 E.07343
G1 X194.852 Y187.921 E.10245
G1 X191.3 Y192.112 E.09103
G1 X186.979 Y195.466 E.09063
G1 X182.423 Y197.726 E.08427
G1 X178.318 Y198.917 E.07082
G1 X174.072 Y199.416 E.07084
G1 X126.055 Y199.422 E.79561
G1 X121.712 Y198.923 E.07243
G1 X117.54 Y197.716 E.07196
G1 X112.078 Y194.851 E.1022
G1 X107.888 Y191.3 E.091
G1 X104.534 Y186.979 E.09063
G1 X102.274 Y182.423 E.08427
G1 X101.083 Y178.318 E.07082
G1 X100.584 Y174.072 E.07084
G1 X100.578 Y126.055 E.79561
G1 X101.077 Y121.712 E.07243
G1 X102.284 Y117.54 E.07196
G1 X105.147 Y112.082 E.10212
G1 X108.427 Y108.177 E.0845
G1 X108.427 Y108.177 F9000
G1 X108.732 Y108.434
G1 F1200
G1 X108.835 Y108.312 E.00265
G1 X112.931 Y105.062 E.08664
G1 X117.594 Y102.697 E.08663
G1 X122.609 Y101.312 E.08621
G1 X126.699 Y100.944 E.06804
G1 X173.35 Y100.945 E.77298
G1 X178.153 Y101.457 E.08003
G1 X182.792 Y102.85 E.08026
G1 X187.091 Y105.076 E.08021
G1 X190.892 Y108.043 E.0799
G1 X195.08 Y113.145 E.10937
G1 X197.163 Y117.24 E.07613
G1 X198.508 Y121.674 E.07677
G1 X199.056 Y126.678 E.08341
G1 X199.035 Y173.723 E.77951
G1 X198.556 Y178.091 E.07281
G1 X197.344 Y182.315 E.07281
G1 X194.509 Y187.716 E.10107
G1 X191.039 Y191.81 E.08892
G1 X186.784 Y195.118 E.0893
G1 X182.295 Y197.348 E.08305
G1 X178.223 Y198.529 E.07025
G1 X174.037 Y199.018 E.06983
G1 X126.089 Y199.025 E.79447
G1 X121.807 Y198.535 E.07141
G1 X117.67 Y197.339 E.07135
G1 X112.283 Y194.508 E.10083
G1 X108.19 Y191.039 E.0889
G1 X104.882 Y186.784 E.0893
G1 X102.652 Y182.295 E.08305
G1 X101.471 Y178.223 E.07025
G1 X100.982 Y174.037 E.06983
G1 X100.975 Y126.089 E.79447
G1 X101.465 Y121.807 E.07141
G1 X102.661 Y117.67 E.07135
G1 X105.49 Y112.286 E.10077
G1 X108.693 Y108.48 E.08242
G1 X108.693 Y108.48 F9000
G1 X108.998 Y108.736
G1 F1200
G1 X109.126 Y108.584 E.00329
G1 X113.163 Y105.387 E.08533
G1 X117.72 Y103.076 E.08466
G1 X122.663 Y101.707 E.08499
G1 X126.707 Y101.343 E.06728
G1 X173.34 Y101.344 E.77268
G1 X178.092 Y101.851 E.07918
G1 X182.659 Y103.226 E.07903
G1 X186.891 Y105.422 E.079
G1 X190.629 Y108.343 E.0786
G1 X194.734 Y113.345 E.10722
G1 X196.8 Y117.405 E.07548
G1 X198.121 Y121.771 E.07558
G1 X198.657 Y126.689 E.08197
G1 X198.638 Y173.691 E.77879
G1 X198.168 Y177.997 E.07177
G1 X196.967 Y182.185 E.07219
G1 X194.166 Y187.511 E.09971
G1 X190.748 Y191.537 E.08751
G1 X186.589 Y194.77 E.08728
G1 X182.167 Y196.971 E.08184
G1 X178.16 Y198.135 E.06914
G1 X174.002 Y198.621 E.06936
G1 X126.122 Y198.628 E.79334
G1 X121.901 Y198.148 E.07039
G1 X117.801 Y196.962 E.07072
G1 X112.488 Y194.166 E.09948
G1 X108.463 Y190.748 E.08749
G1 X105.23 Y186.589 E.08728
G1 X103.029 Y182.167 E.08184
G1 X101.865 Y178.16 E.06914
G1 X101.379 Y174.002 E.06936
G1 X101.372 Y126.122 E.79334
G1 X101.852 Y121.901 E.07039
G1 X103.038 Y117.801 E.07072
G1 X105.832 Y112.491 E.09942
G1 X108.959 Y108.782 E.08038
G1 X108.959 Y108.782 F9000
G1 X109.264 Y109.039
G1 F1200
G1 X109.418 Y108.857 E.00395
G1 X113.362 Y105.733 E.08337
G1 X117.846 Y103.454 E.08334
G1 X122.716 Y102.103 E.08374
G1 X126.716 Y101.741 E.06655
G1 X173.329 Y101.742 E.77235
G1 X177.995 Y102.238 E.07775
G1 X182.492 Y103.588 E.0778
G1 X186.66 Y105.747 E.07778
G1 X190.367 Y108.644 E.07795
G1 X194.389 Y113.545 E.10505
G1 X196.437 Y117.57 E.07483
G1 X197.734 Y121.869 E.0744
G1 X198.259 Y126.699 E.0805
G1 X198.24 Y173.658 E.77808
G1 X197.774 Y177.937 E.07132
G1 X196.59 Y182.055 E.071
G1 X193.824 Y187.306 E.09834
G1 X190.487 Y191.235 E.08541
G1 X186.393 Y194.423 E.08598
G1 X182.038 Y196.593 E.08062
G1 X178.065 Y197.748 E.06856
G1 X173.968 Y198.224 E.06834
G1 X126.156 Y198.231 E.79221
G1 X121.963 Y197.754 E.06992
G1 X117.931 Y196.585 E.06956
G1 X112.693 Y193.824 E.09811
G1 X108.765 Y190.487 E.0854
G1 X105.577 Y186.393 E.08598
G1 X103.407 Y182.038 E.08062
G1 X102.252 Y178.065 E.06856
G1 X101.776 Y173.968 E.06834
G1 X101.769 Y126.156 E.79221
G1 X102.246 Y121.963 E.06992
G1 X103.415 Y117.931 E.06956
G1 X106.175 Y112.696 E.09806
G1 X109.225 Y109.085 E.07832
G1 X109.225 Y109.085 F9000
G1 X109.529 Y109.342
G1 F1200
G1 X109.709 Y109.129 E.00462
G1 X113.593 Y106.058 E.08204
G1 X118.008 Y103.819 E.08202
G1 X122.77 Y102.498 E.08188
G1 X126.726 Y102.14 E.06582
G1 X173.318 Y102.141 E.772
G1 X177.934 Y102.633 E.07692
G1 X182.36 Y103.965 E.07659
G1 X186.46 Y106.092 E.07653
G1 X190.104 Y108.944 E.07667
G1 X194.044 Y113.745 E.10291
G1 X196.06 Y117.702 E.07358
G1 X197.347 Y121.966 E.0738
G1 X197.86 Y126.71 E.07906
G1 X197.843 Y173.626 E.77737
G1 X197.386 Y177.843 E.07028
G1 X196.212 Y181.925 E.07038
G1 X193.482 Y187.1 E.09695
G1 X190.197 Y190.961 E.084
G1 X186.197 Y194.075 E.08399
G1 X181.909 Y196.215 E.07941
G1 X178.003 Y197.354 E.06742
G1 X173.933 Y197.827 E.06789
G1 X126.19 Y197.833 E.79107
G1 X122.058 Y197.366 E.0689
G1 X118.062 Y196.208 E.06894
G1 X112.899 Y193.482 E.09674
G1 X109.039 Y190.197 E.08398
G1 X105.925 Y186.197 E.08399
G1 X103.785 Y181.909 E.07941
G1 X102.646 Y178.003 E.06742
G1 X102.173 Y173.933 E.06789
G1 X102.167 Y126.19 E.79107
G1 X102.634 Y122.058 E.0689
G1 X103.792 Y118.062 E.06894
G1 X106.517 Y112.901 E.0967
G1 X109.49 Y109.388 E.07625
G1 X109.49 Y109.388 F9000
G1 X109.794 Y109.646
G1 F1200
G1 X110 Y109.402 E.00529
G1 X113.824 Y106.383 E.08073
G1 X118.134 Y104.197 E.08007
G1 X122.824 Y102.893 E.08066
G1 X126.735 Y102.538 E.06507
G1 X173.308 Y102.539 E.77168
G1 X177.838 Y103.02 E.07548
G1 X182.193 Y104.327 E.07534
G1 X186.26 Y106.437 E.07592
G1 X189.841 Y109.244 E.07539
G1 X193.698 Y113.945 E.10075
G1 X195.697 Y117.867 E.07294
G1 X196.961 Y122.063 E.07261
G1 X197.462 Y126.72 E.07761
G1 X197.446 Y173.594 E.77667
G1 X196.992 Y177.783 E.06982
G1 X195.835 Y181.795 E.06919
G1 X193.14 Y186.895 E.09558
G1 X189.936 Y190.659 E.0819
G1 X186.001 Y193.727 E.08268
G1 X181.781 Y195.838 E.07818
G1 X177.907 Y196.967 E.06686
G1 X173.899 Y197.43 E.06685
G1 X126.223 Y197.436 E.78996
G1 X122.119 Y196.972 E.06843
G1 X118.193 Y195.831 E.06774
G1 X113.105 Y193.139 E.09538
G1 X109.341 Y189.936 E.08189
G1 X106.273 Y186.001 E.08268
G1 X104.162 Y181.781 E.07818
G1 X103.033 Y177.907 E.06686
G1 X102.57 Y173.899 E.06685
G1 X102.564 Y126.223 E.78996
G1 X103.028 Y122.119 E.06843
G1 X104.169 Y118.193 E.06774
G1 X106.859 Y113.107 E.09533
G1 X109.755 Y109.692 E.07419
G1 X109.755 Y109.692 F9000
G1 X110.058 Y109.949
G1 F1200
G1 X110.291 Y109.676 E.00595
G1 X114.023 Y106.73 E.07878
G1 X118.26 Y104.576 E.07876
G1 X122.878 Y103.288 E.07944
G1 X126.744 Y102.937 E.06432
G1 X173.298 Y102.938 E.77137
G1 X177.741 Y103.407 E.07403
G1 X182.06 Y104.703 E.07472
G1 X186.059 Y106.782 E.07468
G1 X189.578 Y109.544 E.07412
G1 X193.353 Y114.146 E.09862
G1 X195.321 Y117.999 E.07169
G1 X196.574 Y122.16 E.072
G1 X197.063 Y126.731 E.07617
G1 X197.048 Y173.562 E.77596
G1 X196.604 Y177.689 E.06878
G1 X195.458 Y181.665 E.06856
G1 X192.798 Y186.689 E.09419
G1 X189.646 Y190.385 E.08049
G1 X185.805 Y193.38 E.0807
G1 X181.651 Y195.46 E.07698
G1 X177.845 Y196.573 E.0657
G1 X173.864 Y197.032 E.0664
G1 X126.257 Y197.039 E.78882
G1 X122.214 Y196.585 E.06741
G1 X118.323 Y195.454 E.06714
G1 X113.311 Y192.798 E.09399
G1 X109.615 Y189.646 E.08049
G1 X106.62 Y185.805 E.0807
G1 X104.54 Y181.651 E.07698
G1 X103.427 Y177.845 E.0657
G1 X102.968 Y173.864 E.0664
G1 X102.961 Y126.257 E.78882
G1 X103.415 Y122.214 E.06741
G1 X104.546 Y118.324 E.06712
G1 X107.201 Y113.313 E.09396
G1 X110.02 Y109.995 E.07214
G1 X110.02 Y109.995 F9000
G1 X110.323 Y110.253
G1 F1200
G1 X110.581 Y109.949 E.00661
G1 X114.254 Y107.055 E.07748
G1 X118.423 Y104.94 E.07746
G1 X122.933 Y103.684 E.07757
G1 X126.753 Y103.335 E.06356
G1 X173.287 Y103.336 E.77104
G1 X177.68 Y103.801 E.0732
G1 X181.927 Y105.079 E.07349
G1 X185.859 Y107.127 E.07346
G1 X189.314 Y109.844 E.07283
G1 X193.008 Y114.346 E.09649
G1 X194.958 Y118.164 E.07104
G1 X196.186 Y122.257 E.0708
G1 X196.665 Y126.741 E.07472
G1 X196.651 Y173.53 E.77526
G1 X196.216 Y177.596 E.06776
G1 X195.081 Y181.535 E.06792
G1 X192.456 Y186.483 E.09281
G1 X189.356 Y190.111 E.07907
G1 X185.609 Y193.033 E.07873
G1 X181.522 Y195.083 E.07576
G1 X177.749 Y196.185 E.06513
G1 X173.83 Y196.635 E.06536
G1 X126.29 Y196.641 E.78771
G1 X122.309 Y196.197 E.06637
G1 X118.454 Y195.077 E.06652
G1 X113.517 Y192.456 E.09262
G1 X109.889 Y189.356 E.07907
G1 X106.967 Y185.609 E.07873
G1 X104.917 Y181.522 E.07576
G1 X103.815 Y177.749 E.06513
G1 X103.365 Y173.83 E.06536
G1 X103.359 Y126.29 E.78771
G1 X103.803 Y122.309 E.06637
G1 X104.923 Y118.454 E.06652
G1 X107.543 Y113.519 E.09258
G1 X110.284 Y110.299 E.07007
G1 X110.284 Y110.299 F9000
G1 X110.584 Y110.555
G1 F1200
G1 X110.844 Y110.25 E.00664
G1 X114.452 Y107.401 E.07617
G1 X118.549 Y105.319 E.07615
G1 X122.987 Y104.079 E.07635
G1 X126.762 Y103.734 E.06281
G1 X173.277 Y103.735 E.77072
G1 X177.584 Y104.188 E.07176
G1 X181.76 Y105.442 E.07225
G1 X185.627 Y107.452 E.07221
G1 X189.051 Y110.144 E.07217
G1 X192.663 Y114.547 E.09436
G1 X194.581 Y118.296 E.06978
G1 X195.799 Y122.354 E.0702
G1 X196.266 Y126.752 E.07328
G1 X196.253 Y173.498 E.77455
G1 X195.822 Y177.536 E.06729
G1 X194.704 Y181.404 E.06671
G1 X192.115 Y186.276 E.09142
G1 X189.095 Y189.809 E.07701
G1 X185.412 Y192.685 E.07743
G1 X181.393 Y194.705 E.07453
G1 X177.654 Y195.798 E.06455
G1 X173.796 Y196.238 E.06434
G1 X126.323 Y196.244 E.7866
G1 X122.37 Y195.803 E.06591
G1 X118.586 Y194.7 E.06531
G1 X113.723 Y192.114 E.09126
G1 X110.191 Y189.095 E.07699
G1 X107.315 Y185.412 E.07743
G1 X105.295 Y181.393 E.07453
G1 X104.202 Y177.654 E.06455
G1 X103.762 Y173.796 E.06434
G1 X103.756 Y126.323 E.7866
G1 X104.197 Y122.37 E.06591
G1 X105.3 Y118.586 E.06531
G1 X107.884 Y113.725 E.09122
G1 X110.545 Y110.6 E.06801
G1 X110.545 Y110.6 F9000
G1 X110.848 Y110.859
G1 F1200
G1 X111.134 Y110.523 E.00731
