; generated by PrusaSlicer 2.7.2+win64 on 2025-05-20 at 13:46:16 UTC

; 

; external perimeters extrusion width = 0.45mm
; perimeters extrusion width = 0.45mm
; infill extrusion width = 0.45mm
; solid infill extrusion width = 0.45mm
; top infill extrusion width = 0.40mm
; support material extrusion width = 0.38mm
; first layer extrusion width = 0.42mm

; external perimeters extrusion width = 0.45mm
; perimeters extrusion width = 0.45mm
; infill extrusion width = 0.45mm
; solid infill extrusion width = 0.45mm
; top infill extrusion width = 0.40mm
; support material extrusion width = 0.38mm
; first layer extrusion width = 0.42mm

M201 X500 Y500 Z100 E5000 ; sets maximum accelerations, mm/sec^2
M203 X500 Y500 Z10 E60 ; sets maximum feedrates, mm / sec
M204 S500 T1000 ; sets acceleration (S) and retract acceleration (R), mm/sec^2
M205 X8.00 Y8.00 Z0.40 E5.00 ; sets the jerk limits, mm/sec
M205 S0 T0 ; sets the minimum extruding and travel feed rate, mm/sec
;TYPE:Custom
G90 ; use absolute coordinates
M83 ; extruder relative mode

G28 ; home all
G1 Z30 X0 Y0 F1000 ; move nozzle to safe heating position for easy drip clean up

M104 S200 ; set extruder temp
M140 S60 ; set bed temp
M190 S60 ; wait for bed temp
M109 S200 ; wait for extruder temp

G28 ; home all
G1 Z2 F240
G1 X2 Y10 F3000
G1 Z0.28 F240
G92 E0.0
G1 Y190 E15.0 F1500.0 ; intro line
G1 X2.3 F5000
G1 Y10 E30 F1200.0 ; intro line
G92 E0.0

G1 Y190 E15.0 F1500.0 ; intro line
G1 X3.3 F5000
G1 Y10 E30 F1200.0 ; intro line
G92 E0.0
G21 ; set units to millimeters
G90 ; use absolute coordinates
M83 ; use relative distances for extrusion
; Filament gcode
M107
;LAYER_CHANGE
;Z:0.1
;HEIGHT:0.1
G1 E-6 F3600
G1 Z.1 F9000
G1 X199.391 Y146.391
G1 Z.1
G1 E6 F2400
;TYPE:Perimeter
;WIDTH:0.419999
G1 F1200
G1 X100.609 Y146.391 E1.63675
G1 X100.609 Y47.609 E1.63675
G1 X199.391 Y47.609 E1.63675
G1 X199.391 Y97 E.81838
G1 X199.391 Y146.331 E.81738
G1 X199.391 Y146.331 F9000
G1 X199.79 Y146.79
;TYPE:External perimeter
G1 F1200
G1 X100.21 Y146.79 E1.64997
G1 X100.21 Y47.21 E1.64997
G1 X199.79 Y47.21 E1.64997
G1 X199.79 Y97 E.82499
G1 X199.79 Y146.73 E.82399
G1 E-4.2 F3600
;WIPE_START
G1 F7200
G1 X199.79 Y146.79 E-.0285
G1 X196.061 Y146.79 E-1.7715
;WIPE_END
G1 X199.272 Y48.536 F9000
G1 E6 F2400
;TYPE:Solid infill
;WIDTH:0.420939
G1 F1200
G1 X198.644 Y47.907 E.01476
G1 X198.079 Y47.907 E.00938
G1 X199.093 Y48.921 E.02382
G1 X199.093 Y49.486 E.00938
G1 X197.514 Y47.907 E.03709
G1 X196.949 Y47.907 E.00938
G1 X199.093 Y50.051 E.05036
G1 X199.093 Y50.616 E.00938
G1 X196.384 Y47.907 E.06363
G1 X195.819 Y47.907 E.00938
G1 X199.093 Y51.181 E.0769
G1 X199.093 Y51.746 E.00938
G1 X195.254 Y47.907 E.09017
G1 X194.689 Y47.907 E.00938
G1 X199.093 Y52.311 E.10344
G1 X199.093 Y52.876 E.00938
G1 X194.124 Y47.907 E.11671
G1 X193.559 Y47.907 E.00938
G1 X199.093 Y53.441 E.12998
G1 X199.093 Y54.006 E.00938
G1 X192.994 Y47.907 E.14325
G1 X192.429 Y47.907 E.00938
G1 X199.093 Y54.571 E.15652
G1 X199.093 Y55.136 E.00938
G1 X191.864 Y47.907 E.16979
G1 X191.299 Y47.907 E.00938
G1 X199.093 Y55.701 E.18306
G1 X199.093 Y56.266 E.00938
G1 X190.734 Y47.907 E.19633
G1 X190.169 Y47.907 E.00938
G1 X199.093 Y56.831 E.20961
G1 X199.093 Y57.396 E.00938
G1 X189.604 Y47.907 E.22288
G1 X189.039 Y47.907 E.00938
G1 X199.093 Y57.961 E.23615
G1 X199.093 Y58.525 E.00937
G1 X188.475 Y47.907 E.24939
G1 X187.91 Y47.907 E.00938
G1 X199.093 Y59.09 E.26266
G1 X199.093 Y59.655 E.00938
G1 X187.345 Y47.907 E.27594
G1 X186.78 Y47.907 E.00938
G1 X199.093 Y60.22 E.28921
G1 X199.093 Y60.785 E.00938
G1 X186.215 Y47.907 E.30248
G1 X185.65 Y47.907 E.00938
G1 X199.093 Y61.35 E.31575
G1 X199.093 Y61.915 E.00938
G1 X185.085 Y47.907 E.32902
G1 X184.52 Y47.907 E.00938
G1 X199.093 Y62.48 E.34229
G1 X199.093 Y63.045 E.00938
G1 X183.955 Y47.907 E.35556
G1 X183.39 Y47.907 E.00938
G1 X199.093 Y63.61 E.36883
G1 X199.093 Y64.175 E.00938
G1 X182.825 Y47.907 E.3821
G1 X182.26 Y47.907 E.00938
G1 X199.093 Y64.74 E.39537
G1 X199.093 Y65.305 E.00938
G1 X181.695 Y47.907 E.40864
G1 X181.13 Y47.907 E.00938
G1 X199.093 Y65.87 E.42191
G1 X199.093 Y66.435 E.00938
G1 X180.565 Y47.907 E.43518
G1 X180 Y47.907 E.00938
G1 X199.093 Y67 E.44845
G1 X199.093 Y67.565 E.00938
G1 X179.435 Y47.907 E.46172
G1 X178.87 Y47.907 E.00938
G1 X199.093 Y68.13 E.47499
G1 X199.093 Y68.695 E.00938
G1 X178.305 Y47.907 E.48827
G1 X177.74 Y47.907 E.00938
G1 X199.093 Y69.259 E.50152
G1 X199.093 Y69.824 E.00938
G1 X177.176 Y47.907 E.51478
G1 X176.611 Y47.907 E.00938
G1 X199.093 Y70.389 E.52805
G1 X199.093 Y70.954 E.00938
G1 X176.046 Y47.907 E.54132
G1 X175.481 Y47.907 E.00938
G1 X199.093 Y71.519 E.55459
G1 X199.093 Y72.084 E.00938
G1 X174.916 Y47.907 E.56787
G1 X174.351 Y47.907 E.00938
G1 X199.093 Y72.649 E.58114
G1 X199.093 Y73.214 E.00938
G1 X173.786 Y47.907 E.59441
G1 X173.221 Y47.907 E.00938
G1 X199.093 Y73.779 E.60768
G1 X199.093 Y74.344 E.00938
G1 X172.656 Y47.907 E.62095
G1 X172.091 Y47.907 E.00938
G1 X199.093 Y74.909 E.63422
G1 X199.093 Y75.474 E.00938
G1 X171.526 Y47.907 E.64749
G1 X170.961 Y47.907 E.00938
G1 X199.093 Y76.039 E.66076
G1 X199.093 Y76.604 E.00938
G1 X170.396 Y47.907 E.67403
G1 X169.831 Y47.907 E.00938
G1 X199.093 Y77.169 E.6873
G1 X199.093 Y77.734 E.00938
G1 X169.266 Y47.907 E.70057
G1 X168.701 Y47.907 E.00938
G1 X199.093 Y78.299 E.71384
G1 X199.093 Y78.864 E.00938
G1 X168.136 Y47.907 E.72711
G1 X167.571 Y47.907 E.00938
G1 X199.093 Y79.429 E.74038
G1 X199.093 Y79.994 E.00938
G1 X167.006 Y47.907 E.75365
G1 X166.442 Y47.907 E.00937
G1 X199.093 Y80.558 E.7669
G1 X199.093 Y81.123 E.00938
G1 X165.877 Y47.907 E.78017
G1 X165.312 Y47.907 E.00938
G1 X199.093 Y81.688 E.79344
G1 X199.093 Y82.253 E.00938
G1 X164.747 Y47.907 E.80671
G1 X164.182 Y47.907 E.00938
G1 X199.093 Y82.818 E.81998
G1 X199.093 Y83.383 E.00938
G1 X163.617 Y47.907 E.83325
G1 X163.052 Y47.907 E.00938
G1 X199.093 Y83.948 E.84653
G1 X199.093 Y84.513 E.00938
G1 X162.487 Y47.907 E.8598
G1 X161.922 Y47.907 E.00938
G1 X199.093 Y85.078 E.87307
G1 X199.093 Y85.643 E.00938
G1 X161.357 Y47.907 E.88634
G1 X160.792 Y47.907 E.00938
G1 X199.093 Y86.208 E.89961
G1 X199.093 Y86.773 E.00938
G1 X160.227 Y47.907 E.91288
G1 X159.662 Y47.907 E.00938
G1 X199.093 Y87.338 E.92615
G1 X199.093 Y87.903 E.00938
G1 X159.097 Y47.907 E.93942
G1 X158.532 Y47.907 E.00938
G1 X199.093 Y88.468 E.95269
G1 X199.093 Y89.033 E.00938
G1 X157.967 Y47.907 E.96596
G1 X157.402 Y47.907 E.00938
G1 X199.093 Y89.598 E.97923
G1 X199.093 Y90.163 E.00938
G1 X156.837 Y47.907 E.9925
G1 X156.272 Y47.907 E.00938
G1 X199.093 Y90.728 E1.00577
G1 X199.093 Y91.292 E.00937
G1 X155.708 Y47.907 E1.01902
G1 X155.143 Y47.907 E.00938
G1 X199.093 Y91.857 E1.03229
G1 X199.093 Y92.422 E.00938
G1 X154.578 Y47.907 E1.04556
G1 X154.013 Y47.907 E.00938
G1 X199.093 Y92.987 E1.05883
G1 X199.093 Y93.552 E.00938
G1 X153.448 Y47.907 E1.0721
G1 X152.883 Y47.907 E.00938
G1 X199.093 Y94.117 E1.08537
G1 X199.093 Y94.682 E.00938
G1 X152.318 Y47.907 E1.09864
G1 X151.753 Y47.907 E.00938
G1 X199.093 Y95.247 E1.11191
G1 X199.093 Y95.812 E.00938
G1 X151.188 Y47.907 E1.12518
G1 X150.623 Y47.907 E.00938
G1 X199.093 Y96.377 E1.13846
G1 X199.093 Y96.942 E.00938
G1 X150.058 Y47.907 E1.15173
G1 X149.493 Y47.907 E.00938
G1 X199.093 Y97.507 E1.165
G1 X199.093 Y98.072 E.00938
G1 X148.928 Y47.907 E1.17827
G1 X148.363 Y47.907 E.00938
G1 X199.093 Y98.637 E1.19154
G1 X199.093 Y99.202 E.00938
G1 X147.798 Y47.907 E1.20481
G1 X147.233 Y47.907 E.00938
G1 X199.093 Y99.767 E1.21808
G1 X199.093 Y100.332 E.00938
G1 X146.668 Y47.907 E1.23135
G1 X146.103 Y47.907 E.00938
G1 X199.093 Y100.897 E1.24462
G1 X199.093 Y101.462 E.00938
G1 X145.538 Y47.907 E1.25789
G1 X144.973 Y47.907 E.00938
G1 X199.093 Y102.027 E1.27116
G1 X199.093 Y102.591 E.00937
G1 X144.409 Y47.907 E1.28441
G1 X143.844 Y47.907 E.00938
G1 X199.093 Y103.156 E1.29768
G1 X199.093 Y103.721 E.00938
G1 X143.279 Y47.907 E1.31095
G1 X142.714 Y47.907 E.00938
G1 X199.093 Y104.286 E1.32422
G1 X199.093 Y104.851 E.00938
G1 X142.149 Y47.907 E1.33749
G1 X141.584 Y47.907 E.00938
G1 X199.093 Y105.416 E1.35076
G1 X199.093 Y105.981 E.00938
G1 X141.019 Y47.907 E1.36403
G1 X140.454 Y47.907 E.00938
G1 X199.093 Y106.546 E1.3773
G1 X199.093 Y107.111 E.00938
G1 X139.889 Y47.907 E1.39057
G1 X139.324 Y47.907 E.00938
G1 X199.093 Y107.676 E1.40384
G1 X199.093 Y108.241 E.00938
G1 X138.759 Y47.907 E1.41712
G1 X138.194 Y47.907 E.00938
G1 X199.093 Y108.806 E1.43039
G1 X199.093 Y109.371 E.00938
G1 X137.629 Y47.907 E1.44366
G1 X137.064 Y47.907 E.00938
G1 X199.093 Y109.936 E1.45693
G1 X199.093 Y110.501 E.00938
G1 X136.499 Y47.907 E1.4702
G1 X135.934 Y47.907 E.00938
G1 X199.093 Y111.066 E1.48347
G1 X199.093 Y111.631 E.00938
G1 X135.369 Y47.907 E1.49674
G1 X134.804 Y47.907 E.00938
G1 X199.093 Y112.196 E1.51001
G1 X199.093 Y112.761 E.00938
G1 X134.239 Y47.907 E1.52328
G1 X133.675 Y47.907 E.00937
G1 X199.093 Y113.325 E1.53653
G1 X199.093 Y113.89 E.00938
G1 X133.11 Y47.907 E1.5498
G1 X132.545 Y47.907 E.00938
G1 X199.093 Y114.455 E1.56307
G1 X199.093 Y115.02 E.00938
G1 X131.98 Y47.907 E1.57634
G1 X131.415 Y47.907 E.00938
G1 X199.093 Y115.585 E1.58961
G1 X199.093 Y116.15 E.00938
G1 X130.85 Y47.907 E1.60288
G1 X130.285 Y47.907 E.00938
G1 X199.093 Y116.715 E1.61615
G1 X199.093 Y117.28 E.00938
G1 X129.72 Y47.907 E1.62942
G1 X129.155 Y47.907 E.00938
G1 X199.093 Y117.845 E1.64269
G1 X199.093 Y118.41 E.00938
G1 X128.59 Y47.907 E1.65596
G1 X128.025 Y47.907 E.00938
G1 X199.093 Y118.975 E1.66923
G1 X199.093 Y119.54 E.00938
G1 X127.46 Y47.907 E1.6825
G1 X126.895 Y47.907 E.00938
G1 X199.093 Y120.105 E1.69577
G1 X199.093 Y120.67 E.00938
G1 X126.33 Y47.907 E1.70905
G1 X125.765 Y47.907 E.00938
G1 X199.093 Y121.235 E1.72232
G1 X199.093 Y121.8 E.00938
G1 X125.2 Y47.907 E1.73559
G1 X124.635 Y47.907 E.00938
G1 X199.093 Y122.365 E1.74886
G1 X199.093 Y122.93 E.00938
G1 X124.07 Y47.907 E1.76213
G1 X123.505 Y47.907 E.00938
G1 X199.093 Y123.495 E1.7754
G1 X199.093 Y124.06 E.00938
G1 X122.94 Y47.907 E1.78867
G1 X122.376 Y47.907 E.00937
G1 X199.093 Y124.624 E1.80192
G1 X199.093 Y125.189 E.00938
G1 X121.811 Y47.907 E1.81519
G1 X121.246 Y47.907 E.00938
G1 X199.093 Y125.754 E1.82846
G1 X199.093 Y126.319 E.00938
G1 X120.681 Y47.907 E1.84173
G1 X120.116 Y47.907 E.00938
G1 X199.093 Y126.884 E1.855
G1 X199.093 Y127.449 E.00938
G1 X119.551 Y47.907 E1.86827
G1 X118.986 Y47.907 E.00938
G1 X199.093 Y128.014 E1.88154
G1 X199.093 Y128.579 E.00938
G1 X118.421 Y47.907 E1.89481
G1 X117.856 Y47.907 E.00938
G1 X199.093 Y129.144 E1.90808
G1 X199.093 Y129.709 E.00938
G1 X117.291 Y47.907 E1.92135
G1 X116.726 Y47.907 E.00938
G1 X199.093 Y130.274 E1.93462
G1 X199.093 Y130.839 E.00938
G1 X116.161 Y47.907 E1.94789
G1 X115.596 Y47.907 E.00938
G1 X199.093 Y131.404 E1.96116
G1 X199.093 Y131.969 E.00938
G1 X115.031 Y47.907 E1.97443
G1 X114.466 Y47.907 E.00938
G1 X199.093 Y132.534 E1.9877
G1 X199.093 Y133.099 E.00938
G1 X113.901 Y47.907 E2.00098
G1 X113.336 Y47.907 E.00938
G1 X199.093 Y133.664 E2.01425
G1 X199.093 Y134.229 E.00938
G1 X112.771 Y47.907 E2.02752
G1 X112.206 Y47.907 E.00938
G1 X199.093 Y134.794 E2.04079
G1 X199.093 Y135.358 E.00937
G1 X111.642 Y47.907 E2.05403
G1 X111.077 Y47.907 E.00938
G1 X199.093 Y135.923 E2.06731
G1 X199.093 Y136.488 E.00938
G1 X110.512 Y47.907 E2.08058
G1 X109.947 Y47.907 E.00938
G1 X199.093 Y137.053 E2.09385
G1 X199.093 Y137.618 E.00938
G1 X109.382 Y47.907 E2.10712
G1 X108.817 Y47.907 E.00938
G1 X199.093 Y138.183 E2.12039
G1 X199.093 Y138.748 E.00938
G1 X108.252 Y47.907 E2.13366
G1 X107.687 Y47.907 E.00938
G1 X199.093 Y139.313 E2.14693
G1 X199.093 Y139.878 E.00938
G1 X107.122 Y47.907 E2.1602
G1 X106.557 Y47.907 E.00938
G1 X199.093 Y140.443 E2.17347
G1 X199.093 Y141.008 E.00938
G1 X105.992 Y47.907 E2.18674
G1 X105.427 Y47.907 E.00938
G1 X199.093 Y141.573 E2.20001
G1 X199.093 Y142.138 E.00938
G1 X104.862 Y47.907 E2.21328
G1 X104.297 Y47.907 E.00938
G1 X199.093 Y142.703 E2.22655
G1 X199.093 Y143.268 E.00938
G1 X103.732 Y47.907 E2.23982
G1 X103.167 Y47.907 E.00938
G1 X199.093 Y143.833 E2.25309
G1 X199.093 Y144.398 E.00938
G1 X102.602 Y47.907 E2.26636
G1 X102.037 Y47.907 E.00938
G1 X199.093 Y144.963 E2.27964
G1 X199.093 Y145.528 E.00938
G1 X101.472 Y47.907 E2.29291
G1 X100.907 Y47.907 E.00938
G1 X199.093 Y146.093 E2.30618
G1 X198.528 Y146.093 E.00938
G1 X100.907 Y48.472 E2.29291
G1 X100.907 Y49.037 E.00938
G1 X197.963 Y146.093 E2.27964
G1 X197.398 Y146.093 E.00938
G1 X100.907 Y49.602 E2.26636
G1 X100.907 Y50.167 E.00938
G1 X196.833 Y146.093 E2.25309
G1 X196.268 Y146.093 E.00938
G1 X100.907 Y50.732 E2.23982
G1 X100.907 Y51.297 E.00938
G1 X195.703 Y146.093 E2.22655
G1 X195.138 Y146.093 E.00938
G1 X100.907 Y51.862 E2.21328
G1 X100.907 Y52.427 E.00938
G1 X194.573 Y146.093 E2.20001
G1 X194.008 Y146.093 E.00938
G1 X100.907 Y52.992 E2.18674
G1 X100.907 Y53.557 E.00938
G1 X193.443 Y146.093 E2.17347
G1 X192.878 Y146.093 E.00938
G1 X100.907 Y54.122 E2.1602
G1 X100.907 Y54.687 E.00938
G1 X192.313 Y146.093 E2.14693
G1 X191.748 Y146.093 E.00938
G1 X100.907 Y55.252 E2.13366
G1 X100.907 Y55.817 E.00938
G1 X191.183 Y146.093 E2.12039
G1 X190.618 Y146.093 E.00938
G1 X100.907 Y56.382 E2.10712
G1 X100.907 Y56.947 E.00938
G1 X190.053 Y146.093 E2.09385
G1 X189.488 Y146.093 E.00938
G1 X100.907 Y57.512 E2.08058
G1 X100.907 Y58.076 E.00937
G1 X188.924 Y146.093 E2.06733
G1 X188.359 Y146.093 E.00938
G1 X100.907 Y58.641 E2.05406
G1 X100.907 Y59.206 E.00938
G1 X187.794 Y146.093 E2.04079
G1 X187.229 Y146.093 E.00938
G1 X100.907 Y59.771 E2.02752
G1 X100.907 Y60.336 E.00938
G1 X186.664 Y146.093 E2.01425
G1 X186.099 Y146.093 E.00938
G1 X100.907 Y60.901 E2.00098
G1 X100.907 Y61.466 E.00938
G1 X185.534 Y146.093 E1.9877
G1 X184.969 Y146.093 E.00938
G1 X100.907 Y62.031 E1.97443
G1 X100.907 Y62.596 E.00938
G1 X184.404 Y146.093 E1.96116
G1 X183.839 Y146.093 E.00938
G1 X100.907 Y63.161 E1.94789
G1 X100.907 Y63.726 E.00938
G1 X183.274 Y146.093 E1.93462
G1 X182.709 Y146.093 E.00938
G1 X100.907 Y64.291 E1.92135
G1 X100.907 Y64.856 E.00938
G1 X182.144 Y146.093 E1.90808
G1 X181.579 Y146.093 E.00938
G1 X100.907 Y65.421 E1.89481
G1 X100.907 Y65.986 E.00938
G1 X181.014 Y146.093 E1.88154
G1 X180.449 Y146.093 E.00938
G1 X100.907 Y66.551 E1.86827
G1 X100.907 Y67.116 E.00938
G1 X179.884 Y146.093 E1.855
G1 X179.319 Y146.093 E.00938
G1 X100.907 Y67.681 E1.84173
G1 X100.907 Y68.246 E.00938
G1 X178.754 Y146.093 E1.82846
G1 X178.189 Y146.093 E.00938
G1 X100.907 Y68.81 E1.8152
G1 X100.907 Y69.375 E.00938
G1 X177.625 Y146.093 E1.80194
G1 X177.06 Y146.093 E.00938
G1 X100.907 Y69.94 E1.78867
G1 X100.907 Y70.505 E.00938
G1 X176.495 Y146.093 E1.7754
G1 X175.93 Y146.093 E.00938
G1 X100.907 Y71.07 E1.76213
G1 X100.907 Y71.635 E.00938
G1 X175.365 Y146.093 E1.74886
G1 X174.8 Y146.093 E.00938
G1 X100.907 Y72.2 E1.73559
G1 X100.907 Y72.765 E.00938
G1 X174.235 Y146.093 E1.72232
G1 X173.67 Y146.093 E.00938
G1 X100.907 Y73.33 E1.70905
G1 X100.907 Y73.895 E.00938
G1 X173.105 Y146.093 E1.69577
G1 X172.54 Y146.093 E.00938
G1 X100.907 Y74.46 E1.6825
G1 X100.907 Y75.025 E.00938
G1 X171.975 Y146.093 E1.66923
G1 X171.41 Y146.093 E.00938
G1 X100.907 Y75.59 E1.65596
G1 X100.907 Y76.155 E.00938
G1 X170.845 Y146.093 E1.64269
G1 X170.28 Y146.093 E.00938
G1 X100.907 Y76.72 E1.62942
G1 X100.907 Y77.285 E.00938
G1 X169.715 Y146.093 E1.61615
G1 X169.15 Y146.093 E.00938
G1 X100.907 Y77.85 E1.60288
G1 X100.907 Y78.415 E.00938
G1 X168.585 Y146.093 E1.58961
G1 X168.02 Y146.093 E.00938
G1 X100.907 Y78.98 E1.57634
G1 X100.907 Y79.545 E.00938
G1 X167.455 Y146.093 E1.56307
G1 X166.891 Y146.093 E.00937
G1 X100.907 Y80.109 E1.54982
G1 X100.907 Y80.674 E.00938
G1 X166.326 Y146.093 E1.53655
G1 X165.761 Y146.093 E.00938
G1 X100.907 Y81.239 E1.52328
G1 X100.907 Y81.804 E.00938
G1 X165.196 Y146.093 E1.51001
G1 X164.631 Y146.093 E.00938
G1 X100.907 Y82.369 E1.49674
G1 X100.907 Y82.934 E.00938
G1 X164.066 Y146.093 E1.48347
G1 X163.501 Y146.093 E.00938
G1 X100.907 Y83.499 E1.4702
G1 X100.907 Y84.064 E.00938
G1 X162.936 Y146.093 E1.45693
G1 X162.371 Y146.093 E.00938
G1 X100.907 Y84.629 E1.44366
G1 X100.907 Y85.194 E.00938
G1 X161.806 Y146.093 E1.43039
G1 X161.241 Y146.093 E.00938
G1 X100.907 Y85.759 E1.41712
